X: 1
T: Are Ye Sleeping Maggie
O: arr. Don Heminitz
M: 2/4
L: 1/16
K: Bm
% - - - - - - - - - -
"^A"|:\
"Bm"F2B2 B2d2 | "A"c3B A2c2 | "Bm"d2B2 dcBA | "F#m"F2d2 "Bm"c2B2 :|
"^B"|:\
"D"f4 Bcde | f3g fed2 | "A"e4 ABcd | e2-ea fedc |
"Bm"B2-Bc d2-de | f2-fe d2-de | f2B2 dcBA | "F#m"F2d2 "Bm"c2B2 :|
% - - - - - - - - - -

